openmetadata-ui/src/main/resources/ui/src/assets/svg/schema-color.svg

<svg xmlns="http://www.w3.org/2000/svg" width="17" height="17" viewBox="0 0 17 17" fill="none">
<path d="M13.3693 3.31499C14.1392 3.82496 15.1758 3.61497 15.6858 2.84502C16.1958 2.07507 15.9858 1.03848 15.2158 0.528507C14.4459 0.0185387 13.4093 0.228526 12.8993 0.998478C12.5293 1.55844 12.5293 2.28505 12.8993 2.84502L10.0528 5.6915C10.0362 5.70815 10.0228 5.72815 10.0128 5.75149C8.81956 4.61491 6.92968 4.66156 5.7931 5.85814C5.76975 5.8848 5.74644 5.90814 5.7231 5.93479L3.55658 4.69822C3.59992 4.55488 3.61992 4.41158 3.62323 4.26159C3.63323 3.33164 2.88662 2.56504 1.95668 2.55504C1.02674 2.54504 0.260099 3.29168 0.2501 4.22162C0.2401 5.15156 0.98671 5.91817 1.91665 5.92817C2.43662 5.93483 2.93324 5.69818 3.25657 5.29155L5.33309 6.47814C4.70313 7.61472 4.87978 9.02798 5.77307 9.97457L3.6732 12.0678C3.50321 11.9744 3.31322 11.9245 3.12323 11.9245C2.47993 11.9245 1.95665 12.4478 1.95665 13.091C1.95665 13.7343 2.47996 14.2576 3.12323 14.2576C3.7665 14.2576 4.28982 13.7343 4.28982 13.091C4.28982 12.8977 4.23982 12.7077 4.14648 12.5411L6.27635 10.4079C7.35962 11.1412 8.79285 11.0878 9.81613 10.2712L11.5827 12.3344C10.7061 13.2777 10.7627 14.7509 11.706 15.6276C12.6493 16.5042 14.1225 16.4475 14.9991 15.5042C15.8757 14.5609 15.8191 13.0877 14.8758 12.2111C14.4425 11.8111 13.8759 11.5911 13.2893 11.5911C12.8726 11.5911 12.4626 11.7045 12.1027 11.9178L10.2894 9.80455C11.1227 8.77462 11.176 7.31805 10.4228 6.22812C10.4594 6.21146 10.4928 6.18812 10.5228 6.16147L13.3693 3.31499ZM14.2892 0.925138C14.8425 0.925138 15.2892 1.37177 15.2892 1.92508C15.2892 2.47839 14.8425 2.92501 14.2892 2.92501C13.7359 2.92501 13.2893 2.47839 13.2893 1.92508C13.2893 1.37177 13.7359 0.925138 14.2892 0.925138ZM1.95665 5.25821C1.40334 5.25821 0.956712 4.81158 0.956712 4.25827C0.956712 3.70496 1.40334 3.25834 1.95665 3.25834C2.50996 3.25834 2.95659 3.70496 2.95659 4.25827C2.95659 4.81158 2.50661 5.25821 1.95665 5.25821ZM3.12326 13.591C2.84662 13.591 2.6233 13.3677 2.6233 13.0911C2.6233 12.8144 2.84662 12.5911 3.12326 12.5911C3.3999 12.5911 3.62323 12.8144 3.62323 13.0911C3.62323 13.3677 3.39656 13.591 3.12326 13.591ZM13.2893 12.2578C14.2092 12.2578 14.9558 13.0044 14.9558 13.9243C14.9525 14.8443 14.2092 15.5876 13.2893 15.5909C12.3693 15.5909 11.6227 14.8443 11.6227 13.9243C11.6227 13.0044 12.3693 12.2578 13.2893 12.2578ZM7.95627 10.2579C6.66635 10.2579 5.62308 9.21462 5.62308 7.9247C5.62308 6.63478 6.66635 5.5915 7.95627 5.5915C9.24619 5.5915 10.2895 6.63478 10.2895 7.9247C10.2861 9.21131 9.24288 10.2546 7.95627 10.2579Z" fill="#1e61f0"/>
<path fill-rule="evenodd" clip-rule="evenodd" d="M12.6909 0.860428C13.2772 -0.0247642 14.4689 -0.266047 15.3539 0.320079C16.2391 0.906375 16.4803 2.09813 15.8942 2.98307C15.3465 3.81007 14.2702 4.07504 13.4095 3.62834L10.7546 6.28324C11.4005 7.37845 11.3457 8.75527 10.6104 9.79464L12.1614 11.6023C12.5122 11.4313 12.8979 11.3411 13.2893 11.3411C13.9384 11.3411 14.5657 11.5846 15.0454 12.0274C16.0894 12.9977 16.1532 14.6296 15.1823 15.6744C14.212 16.7184 12.5806 16.7816 11.5358 15.8107C10.5471 14.8918 10.438 13.38 11.254 12.3349L9.77745 10.6104C8.74334 11.3167 7.39228 11.3609 6.31205 10.7259L4.44695 12.594C4.50787 12.7514 4.53982 12.9201 4.53982 13.091C4.53982 13.8724 3.90458 14.5076 3.12323 14.5076C2.34189 14.5076 1.70665 13.8724 1.70665 13.091C1.70665 12.3097 2.34185 11.6745 3.12323 11.6745C3.29303 11.6745 3.46157 11.7069 3.6199 11.7679L5.43074 9.96282C4.65559 9.00744 4.49061 7.69394 5.00294 6.57741L3.30806 5.60892C2.94181 5.97605 2.43846 6.18477 1.9138 6.17815C0.845155 6.16658 -0.0113616 5.28616 0.000113979 4.21893C0.0116056 3.15021 0.892083 2.29358 1.95937 2.30505C3.02809 2.31654 3.88469 3.19699 3.87322 4.26427L3.87319 4.26711C3.87091 4.37018 3.86157 4.47208 3.84317 4.57393L5.67614 5.62013C6.85253 4.44889 8.71781 4.36548 9.99114 5.39963L12.5862 2.80458C12.269 2.19043 12.304 1.44601 12.6909 0.860428ZM10.3521 5.9786L13.337 2.99373L13.5073 3.10656C14.1623 3.54037 15.0437 3.36168 15.4774 2.70697C15.9112 2.052 15.7325 1.17058 15.0778 0.736935C14.4228 0.303124 13.5414 0.481815 13.1077 1.13653C12.7931 1.61288 12.7932 2.2309 13.1079 2.7072L13.2204 2.87748L10.2387 5.85922L10.144 6.0802L10.3194 6.00051C10.3273 5.99689 10.3384 5.9902 10.3521 5.9786ZM10.0575 6.13928L9.84041 5.93252C8.74835 4.89234 7.01932 4.93383 5.97756 6.02696C5.96454 6.04167 5.95199 6.05512 5.9418 6.06605L5.94088 6.06703C5.92884 6.07993 5.91984 6.08961 5.91118 6.0995L5.77659 6.25318L3.25961 4.81657L3.31728 4.62586C3.35303 4.50761 3.37028 4.3876 3.37326 4.25749C3.38102 3.46553 2.74468 2.81352 1.95399 2.80502C1.16139 2.7965 0.508592 3.43315 0.500085 4.22431C0.491562 5.01691 1.12818 5.66968 1.91934 5.67818C2.36171 5.68385 2.78552 5.48228 3.06089 5.13596L3.19438 4.96808L5.67138 6.3835L5.55175 6.59933C4.97452 7.64079 5.13637 8.93563 5.95489 9.80299L6.12184 9.9799L3.71705 12.3771L3.55287 12.2869C3.41839 12.2131 3.26962 12.1745 3.12323 12.1745C2.618 12.1745 2.20665 12.5858 2.20665 13.091C2.20665 13.5962 2.61803 14.0076 3.12323 14.0076C3.62843 14.0076 4.03982 13.5962 4.03982 13.091C4.03982 12.9406 4.00084 12.7926 3.92836 12.6632L3.83596 12.4983L6.2454 10.085L6.41649 10.2008C7.40952 10.873 8.72276 10.8239 9.66019 10.0758L9.84896 9.92516L11.9176 12.3412L11.7658 12.5046C10.9836 13.3464 11.0337 14.6614 11.8762 15.4444C12.7179 16.2267 14.033 16.1766 14.816 15.334C15.5981 14.4924 15.5482 13.1777 14.7061 12.3946C14.3192 12.0376 13.8132 11.8411 13.2893 11.8411C12.918 11.8411 12.5519 11.9421 12.2301 12.1328L12.0496 12.2398L9.96406 9.80925L10.0951 9.64731C10.8584 8.70383 10.9075 7.36917 10.2171 6.37026L10.0575 6.13928ZM14.2892 1.17514C13.874 1.17514 13.5393 1.50984 13.5393 1.92508C13.5393 2.34031 13.874 2.67501 14.2892 2.67501C14.7045 2.67501 15.0392 2.34031 15.0392 1.92508C15.0392 1.50984 14.7045 1.17514 14.2892 1.17514ZM13.0393 1.92508C13.0393 1.2337 13.5978 0.675138 14.2892 0.675138C14.9806 0.675138 15.5392 1.2337 15.5392 1.92508C15.5392 2.61646 14.9806 3.17501 14.2892 3.17501C13.5978 3.17501 13.0393 2.61646 13.0393 1.92508ZM1.95665 3.50834C1.54141 3.50834 1.20671 3.84304 1.20671 4.25827C1.20671 4.67351 1.54141 5.00821 1.95665 5.00821C2.36909 5.00821 2.70659 4.67297 2.70659 4.25827C2.70659 3.84304 2.37189 3.50834 1.95665 3.50834ZM0.706712 4.25827C0.706712 3.56689 1.26527 3.00834 1.95665 3.00834C2.64803 3.00834 3.20659 3.56689 3.20659 4.25827C3.20659 4.9502 2.64414 5.50821 1.95665 5.50821C1.26527 5.50821 0.706712 4.94965 0.706712 4.25827ZM7.95627 5.8415C6.80443 5.8415 5.87308 6.77285 5.87308 7.9247C5.87308 9.07645 6.80427 10.0077 7.95599 10.0079C9.10474 10.0047 10.0363 9.07317 10.0395 7.92442C10.0393 6.7727 9.10803 5.8415 7.95627 5.8415ZM5.37308 7.9247C5.37308 6.49671 6.52828 5.3415 7.95627 5.3415C9.38426 5.3415 10.5395 6.49671 10.5395 7.9247C10.5358 9.34887 9.38109 10.5042 7.95692 10.5079C6.52893 10.5079 5.37308 9.35269 5.37308 7.9247ZM13.2893 12.5078C12.5074 12.5078 11.8727 13.1425 11.8727 13.9243C11.8727 14.7061 12.5072 15.3407 13.2889 15.3409C14.0711 15.3378 14.7027 14.7061 14.7058 13.9239C14.7056 13.1422 14.071 12.5078 13.2893 12.5078ZM11.3727 13.9243C11.3727 12.8663 12.2313 12.0078 13.2893 12.0078C14.3473 12.0078 15.2058 12.8663 15.2058 13.9243C15.202 14.9816 14.3475 15.8371 13.2902 15.8409C12.2322 15.8409 11.3727 14.9823 11.3727 13.9243ZM3.12326 12.8411C2.9847 12.8411 2.87329 12.9525 2.87329 13.0911C2.87329 13.2296 2.9847 13.341 3.12326 13.341C3.25958 13.341 3.37323 13.2285 3.37323 13.0911C3.37323 12.9525 3.26183 12.8411 3.12326 12.8411ZM2.37329 13.0911C2.37329 12.6764 2.70855 12.3411 3.12326 12.3411C3.53797 12.3411 3.87323 12.6764 3.87323 13.0911C3.87323 13.5069 3.53354 13.841 3.12326 13.841C2.70855 13.841 2.37329 13.5058 2.37329 13.0911Z" fill="#1e61f0"/>
</svg>

<svg xmlns="http://www.w3.org/2000/svg" width="17" height="17" fill="none"><path fill="#004AB3FF" d="M13.37 3.315a1.67 1.67 0 1 0-.47-.47l-2.847 2.846a.19.19 0 0 0-.04.06 2.982 2.982 0 0 0-4.22.107c-.023.027-.047.05-.07.077L3.557 4.698a1.61 1.61 0 0 0 .066-.436 1.689 1.689 0 0 0-1.666-1.707A1.689 1.689 0 0 0 .25 4.222a1.689 1.689 0 0 0 3.007 1.07l2.076 1.186a2.984 2.984 0 0 0 .44 3.497l-2.1 2.093a1.146 1.146 0 0 0-.55-.143c-.643 0-1.166.523-1.166 1.166 0 .643.523 1.167 1.166 1.167.643 0 1.167-.524 1.167-1.167 0-.193-.05-.383-.144-.55l2.13-2.133a2.988 2.988 0 0 0 3.54-.137l1.767 2.063a2.33 2.33 0 1 0 3.416 3.17 2.33 2.33 0 0 0-2.896-3.586l-1.814-2.113a2.987 2.987 0 0 0 .134-3.577.404.404 0 0 0 .1-.067l2.846-2.846Zm.92-2.39c.553 0 1 .447 1 1 0 .553-.447 1-1 1-.554 0-1-.447-1-1 0-.553.446-1 1-1ZM1.956 5.258c-.554 0-1-.446-1-1 0-.553.446-1 1-1a1 1 0 0 1 0 2Zm1.166 8.333a.5.5 0 1 1-.001-.999.5.5 0 0 1 .001.999Zm10.166-1.333c.92 0 1.667.746 1.667 1.666a1.671 1.671 0 0 1-1.667 1.667 1.667 1.667 0 0 1 0-3.333Zm-5.333-2a2.331 2.331 0 0 1-2.333-2.333 2.331 2.331 0 0 1 2.333-2.333 2.332 2.332 0 0 1 2.333 2.333 2.34 2.34 0 0 1-2.333 2.333Z"/><path fill="#004AB3FF" fill-rule="evenodd" d="M12.69.86a1.92 1.92 0 1 1 .72 2.768l-2.655 2.655a3.237 3.237 0 0 1-.145 3.512l1.551 1.807a2.575 2.575 0 0 1 2.884.425 2.58 2.58 0 1 1-3.791.308L9.777 10.61a3.238 3.238 0 0 1-3.465.116l-1.865 1.868c.06.157.093.326.093.497a1.418 1.418 0 0 1-2.833 0c0-.781.635-1.416 1.416-1.416.17 0 .339.032.497.093l1.81-1.805a3.235 3.235 0 0 1-.427-3.386L3.308 5.61c-.366.367-.87.576-1.394.57A1.939 1.939 0 0 1 0 4.218a1.939 1.939 0 0 1 1.96-1.914 1.939 1.939 0 0 1 1.913 1.96v.002a1.963 1.963 0 0 1-.03.307L5.676 5.62a3.233 3.233 0 0 1 4.315-.22l2.595-2.595A1.925 1.925 0 0 1 12.691.86ZM10.353 5.98l2.985-2.985.17.113a1.42 1.42 0 1 0-.4-.4l.113.17L10.24 5.86l-.095.221.175-.08a.148.148 0 0 0 .033-.021Zm-.295.16-.217-.206a2.732 2.732 0 0 0-3.862.094l-.036.039-.001.001a1.387 1.387 0 0 0-.03.032l-.134.154L3.26 4.817l.057-.191a1.36 1.36 0 0 0 .056-.369 1.439 1.439 0 0 0-1.419-1.452A1.439 1.439 0 0 0 .5 4.225a1.439 1.439 0 0 0 2.56.911l.134-.168 2.477 1.415-.12.216a2.735 2.735 0 0 0 .404 3.204l.167.177-2.405 2.397-.164-.09a.897.897 0 0 0-.43-.113.918.918 0 0 0 0 1.834.918.918 0 0 0 .917-.917.878.878 0 0 0-.112-.428l-.092-.165 2.41-2.413.17.116a2.738 2.738 0 0 0 3.244-.125l.189-.15 2.069 2.415-.152.164a2.08 2.08 0 1 0 3.05 2.829 2.08 2.08 0 0 0-2.586-3.201l-.18.107-2.086-2.43.131-.163a2.737 2.737 0 0 0 .122-3.277l-.16-.23Zm4.232-4.964a.749.749 0 0 0-.75.75c0 .415.335.75.75.75s.75-.335.75-.75a.749.749 0 0 0-.75-.75Zm-1.25.75c0-.691.559-1.25 1.25-1.25.692 0 1.25.559 1.25 1.25s-.558 1.25-1.25 1.25c-.691 0-1.25-.559-1.25-1.25ZM1.957 3.508a.749.749 0 0 0-.75.75.75.75 0 1 0 .75-.75Zm-1.25.75c0-.691.558-1.25 1.25-1.25a1.25 1.25 0 1 1-1.25 1.25Zm7.25 1.583a2.081 2.081 0 0 0-2.084 2.084c0 1.151.931 2.083 2.083 2.083a2.09 2.09 0 0 0 2.083-2.084 2.082 2.082 0 0 0-2.083-2.083ZM5.372 7.925a2.581 2.581 0 0 1 2.583-2.583 2.582 2.582 0 0 1 2.583 2.583 2.582 2.582 0 1 1-5.166 0Zm7.916 4.583a1.417 1.417 0 0 0 0 2.833 1.421 1.421 0 0 0 1.417-1.417c0-.782-.635-1.416-1.417-1.416Zm-1.916 1.416a1.917 1.917 0 0 1 3.833 0 1.922 1.922 0 0 1-1.916 1.917 1.918 1.918 0 0 1-1.917-1.917Zm-8.25-1.083a.25.25 0 0 0-.25.25c0 .139.112.25.25.25.137 0 .25-.112.25-.25a.25.25 0 0 0-.25-.25Zm-.75.25a.75.75 0 1 1 1.499-.001.75.75 0 0 1-1.499.001Z" clip-rule="evenodd"/></svg>
